fs/comment_mention_20_regular.svg

<svg viewBox="0 0 20 20" fill="none" xmlns="http://www.w3.org/2000/svg" height="1em" width="1em">
  <path d="M15.0015 2C13.3438 2 12 3.34382 12 5.00152C12 6.65921 13.3438 8.00303 15.0015 8.00303C15.4614 8.00303 15.8916 7.89803 16.2847 7.71048C16.5339 7.59157 16.8324 7.69722 16.9513 7.94645C17.0702 8.19568 16.9645 8.49412 16.7153 8.61302C16.1945 8.8615 15.6177 9.00303 15.0015 9.00303C12.7915 9.00303 11 7.21149 11 5.00152C11 2.79154 12.7915 1 15.0015 1C17.2102 1 19.0009 2.78938 19.003 4.99752L19.003 5V5.49798C19.003 6.32724 18.3308 6.99949 17.5015 6.99949C17.0428 6.99949 16.6321 6.79377 16.3567 6.46954C16.0001 6.79882 15.5236 7 15 7C13.8954 7 13 6.10457 13 5C13 3.89543 13.8954 3 15 3C15.3827 3 15.7403 3.1075 16.0443 3.29396C16.1228 3.1206 16.2973 3 16.5 3C16.7761 3 17 3.22386 17 3.5V5.49798C17 5.77496 17.2245 5.99949 17.5015 5.99949C17.7785 5.99949 18.003 5.77496 18.003 5.49798V5.00152C18.003 3.34382 16.6592 2 15.0015 2ZM14 5C14 5.55228 14.4477 6 15 6C15.5523 6 16 5.55228 16 5C16 4.44772 15.5523 4 15 4C14.4477 4 14 4.44772 14 5ZM18 12.2764V9.00037C17.6923 9.23151 17.357 9.42797 17 9.58396V12.2764C17 13.1288 16.2962 13.8423 15.4 13.8423H10.4809L6.20502 16.9988L6.20346 16.9997L6.2 17L6.19908 13.8423H4.6C3.70383 13.8423 3 13.1288 3 12.2764V5.56582C3 4.71348 3.70383 4 4.6 4H10.1C10.1706 3.6522 10.2773 3.3175 10.416 3H4.6C3.16406 3 2 4.14876 2 5.56582V12.2764C2 13.6935 3.16406 14.8423 4.6 14.8423H5.19937L5.2 17.0133C5.2 17.2262 5.26989 17.4335 5.39921 17.6042C5.73 18.0406 6.35668 18.1298 6.79895 17.8034L10.81 14.8423H15.4C16.8359 14.8423 18 13.6935 18 12.2764Z" fill="#212121"/>
</svg>

<svg viewBox="0 0 20 20" fill="none" xmlns="http://www.w3.org/2000/svg" height="1em" width="1em">
  <path d="M15.002 2a3.001 3.001 0 1 0 0 6.003c.46 0 .89-.105 1.283-.293a.5.5 0 0 1 .43.903c-.52.248-1.097.39-1.713.39a4.001 4.001 0 1 1 4.001-4.005v.5a1.501 1.501 0 0 1-2.646.972 2 2 0 1 1-.312-3.176A.5.5 0 0 1 17 3.5v1.998a.501.501 0 1 0 1.003 0v-.496A3.001 3.001 0 0 0 15.001 2ZM14 5a1 1 0 1 0 2 0 1 1 0 0 0-2 0Zm4 7.276V9a4.995 4.995 0 0 1-1 .584v2.692c0 .853-.704 1.566-1.6 1.566h-4.92L6.206 17H6.2v-3.158H4.6c-.896 0-1.6-.713-1.6-1.566v-6.71C3 4.713 3.704 4 4.6 4h5.5c.07-.348.177-.683.316-1H4.6C3.164 3 2 4.149 2 5.566v6.71c0 1.418 1.164 2.566 2.6 2.566h.6v2.171c0 .213.07.42.2.591.33.437.957.526 1.399.2l4.011-2.962h4.59c1.436 0 2.6-1.149 2.6-2.566Z" fill="#212121"/>
</svg>
